X: 402
T: Bir Nigâhın Kalbimi...
C: Tanburî Cemil Bey
O: Turkey
F: http://compmusic.upf.edu/node/140
N: ferahnak--sarki--aksak--bir_nigahin--tanburi_cemil_bey
N: makam= ferahnak
N: form= sarki
N: usul= aksak = 9/8
M: 9/8
L: 1/16
K: C ^f ^c  
Q: 1/4=120
%%MIDI tuningsystem comma53
a/g/a/b/ag f4 g/f/g/a/gf e6 | ^3/4f/e/f/g/ fed2 z2e/d/e/=f/ edd2 =c2_1/4B2  | 
w:  ARANAĞME  |   | 
=c3d e3d d3c cdcd cB | BA AB=c2 BAA3GB2 AGGF  | 
w:   |   | 
F8 AGFG ABcd (3^3/4efg | a/g/a/b/ agf4g/f/g/a/ gfe6  | 
w:   |  ARANAĞME  | 
^3/4f/e/f/g/fe d2z2 e/d/e/=f/ed d2=c2 _1/4B2 | \
w:   | 
=c3de3dd3ccd cdcB  | 
w:   | 
BAAB =c2BA A3G B2AG GF | F6 agf^3/4e decd efeg  | 
w:   |   | 
f2f4a2 g2f2 ^3/4e2f2 {a}gf | f6 c2d2 ^3/4e2f6  | \
w:  *  Bir  ni gâ  |  hın  SAZ  | 
z2f4a2 a2{b}g2 g4 gf | 
w:  kal bi mi   | 
f3ee3ded dcd6  | d2.d4^3/4e2 f2g2 a2g2 b2 | \
w:  et  |  *  ti  e sîr_  | 
a3gf3ed4=c'2 b2a2  | 
w:  i   | 
z2g4f2 ^3/4e2f2 g4 {a}gf | f6 c2d2 ^3/4e2f6  | \
w:  aş *  *  *  *  *  kın   |  ah   SAZ  | 
z2f4a2 {b}a2g2 f2e2 b2 | 
w:  Her  za *  man   | 
a8a2 {b}g2f2 ^3/4e2d2  | z2e4g2 f2e2 d2c2 ^3/4f2 | \
w:  kan   |  ağ la rım   | 
e2 {^3/4f}edc2 {d}cBB2 {c}BAA6  | 
w:  der  | 
A2B4c2 d2c2 d2c2 B2 | z2 A4 G2F3ed6  | \
w:  *  din le  ey   |  çeşm_  | 
d2A2 G2F2 ^3/4E2F2 G4 {A}GF | 
w:  *  i  *  *  *  *  *  *  si  | 
F6 c2d2 ^3/4e2f6  | z2f4a2 {b}a2g2 f2e2 b2 | \
w:  yah   SAZ  |  Her  za *  man   | 
a8a2 {b}g2f2 ^3/4e2d2  | z2e4g2 f2e2 d2c2 ^3/4f2 | 
w:  kan   |  ağ la rım   | 
e2 {^3/4f}edc2 {d}cBB2 {c}BAA6  | \
w:  der  | 
A2B4c2 d2c2 d2c2 B2 | z2 A4 G2F3ed6  | 
w:  *  din le  ey   |  çeşm_  | 
d2A2 G2F2 ^3/4E2F2 G4 {A}GF | F6 A2^G4A6  | \
w:  *  i  *  *  *  *  *  *  si  |  yah   SAZ  | 
z2F4A2 ^G4 A6 | B2 {=c}BAA4A2 AGF6  | 
w:  Yâ re len  |  di   | 
z2B4B2 B3^A G2A2 B2 | ^A4B4c4d6  | d2d4^3/4e2 f2g2 a2g2 b2 | \
w:  tîr_ i  müj  |  gâ  |  *  nın  *  kalb_  | 
a3gf3ed4=c'2 b2a2  | 
w:  i   | 
z2g4f2 ^3/4e2f2 g4 {a}gf | f6 c2d2 ^3/4e2f6  | \
w:  gam  *  *  *  *  *  pe  |  nah   SAZ  | 
z2f4a2 {b}a2g2 f2e2 b2 | 
w:  Her  za *  man   | 
a8a2 {b}g2f2 ^3/4e2d2  | z2e4g2 f2e2 d2c2 ^3/4f2 | \
w:  kan   |  ağ la rım   | 
e2 {^3/4f}edc2 {d}cBB2 {c}BAA6  | 
w:  der  | 
A2B4c2 d2c2 d2c2 B2 | z2 A4 G2F3ed6  | \
w:  *  din le  ey   |  çeşm_  | 
d2A2 G2F2 ^3/4E2F2 G4 {A}GF | 
w:  *  i  *  *  *  *  *  *  si  | 
F6 c2d2 ^3/4e2f6  | z2f4a2 {b}a2g2 f2e2 b2 | \
w:  yah   SAZ  |  Her  za *  man   | 
a8a2 {b}g2f2 ^3/4e2d2  | z2e4g2 f2e2 d2c2 ^3/4f2 | 
w:  kan   |  ağ la rım   | 
e2 {^3/4f}edc2 {d}cBB2 {c}BAA6  | \
w:  der  | 
A2B4c2 d2c2 d2c2 B2 | z2 A4 G2F3ed6  | 
w:  *  din le  ey   |  çeşm_  | 
d2A2 G2F2 ^3/4E2F2 G4 {A}GF | F6 |
w:  *  i  *  *  *  *  *  *  si  |  yah    | 


